X: 22079
T: Knocknagow
R: jig
M: 6/8
K: Adorian
E|EAB cBc|AdB GAB|EAB cBc|Aee e>cA/G/|
EAB cBc|AdB GAB|Aag ede|cAA A2:|
|:A|Aab aga|ega gdB|Aab age|def g2 d/B/|
Aab aga|ede gab|age dgB|cAA A2:|
|:c/d/|efe dcB|cAG EGB|AGA cBc|dcd e2 c/d/|
efe dcB|cAG G2 e/g/|age dgB|cAA A2:|
|:c/d/|eag a2e|gfe dBG|eag aef|gdB G2 c/d/|
eag aef|g/f/a/g/e/f/ gab|age dgB|cAA A2:|

